src/lib/packages/icons/src/assets/line/volume-minus.svg

<svg width="24" height="24" viewBox="0 0 24 24" fill="none" xmlns="http://www.w3.org/2000/svg">
<path d="M11.323 21.7511C10.764 21.7511 10.215 21.5542 9.76501 21.1732L6.07397 18.046C5.84897 17.855 5.56199 17.7501 5.26599 17.7501H3.49902C2.25902 17.7501 1.24902 16.7411 1.24902 15.5001V8.50106C1.24902 7.26006 2.25902 6.25106 3.49902 6.25106H5.26599C5.56199 6.25106 5.84895 6.14617 6.07495 5.95517L9.76599 2.82797C10.494 2.21097 11.482 2.07809 12.347 2.47909C13.212 2.88009 13.749 3.72114 13.749 4.67514V19.328C13.749 20.282 13.212 21.123 12.347 21.524C12.018 21.676 11.669 21.7511 11.323 21.7511ZM3.5 7.75009C3.087 7.75009 2.75 8.08609 2.75 8.50009V15.4991C2.75 15.9131 3.087 16.2491 3.5 16.2491H5.26697C5.91697 16.2491 6.54795 16.48 7.04395 16.901L10.735 20.0282C11.015 20.2652 11.3809 20.317 11.7159 20.161C12.0499 20.006 12.249 19.694 12.249 19.326V4.67318C12.249 4.30518 12.0499 3.99298 11.7159 3.83798C11.3819 3.68298 11.014 3.73303 10.736 3.97103L7.04395 7.09799C6.54795 7.51799 5.91697 7.75009 5.26697 7.75009H3.5ZM22.75 12.0001C22.75 11.5861 22.414 11.2501 22 11.2501H17C16.586 11.2501 16.25 11.5861 16.25 12.0001C16.25 12.4141 16.586 12.7501 17 12.7501H22C22.414 12.7501 22.75 12.4141 22.75 12.0001Z" fill="currentColor"/>
</svg>

<svg xmlns="http://www.w3.org/2000/svg" width="24" height="24" fill="none"><path fill="currentColor" d="M11.323 21.751a2.403 2.403 0 0 1-1.558-.578l-3.691-3.127a1.25 1.25 0 0 0-.808-.296H3.499a2.253 2.253 0 0 1-2.25-2.25V8.501c0-1.24 1.01-2.25 2.25-2.25h1.767c.296 0 .583-.105.809-.296l3.691-3.127a2.394 2.394 0 0 1 2.581-.349 2.396 2.396 0 0 1 1.402 2.196v14.653c0 .954-.537 1.795-1.402 2.196a2.44 2.44 0 0 1-1.024.227Zm-7.823-14a.75.75 0 0 0-.75.75v6.998c0 .414.337.75.75.75h1.767c.65 0 1.28.231 1.777.652l3.691 3.127c.28.237.646.289.98.133a.9.9 0 0 0 .534-.835V4.673a.9.9 0 0 0-.533-.835.896.896 0 0 0-.98.133L7.044 7.098a2.754 2.754 0 0 1-1.777.652H3.5ZM22.75 12a.75.75 0 0 0-.75-.75h-5a.75.75 0 0 0 0 1.5h5a.75.75 0 0 0 .75-.75Z"/></svg>
